X: 29b
T:29b. Life's Full Measure Harmony
C:c 2003 Harry Bolick  
R:Waltz
O:United States
A:Brooklyn, New York
M:3/4
L:1/8
Q:250
K:Em
|:  "Em" E6 |  B6 | "Am" C2 E2 A2 | E4 C2 |
 "Em" E4 E2 | B6 | "Am" A2 G2 F2 |  E4 B2 |
"Em" E6 | B6 | "D" F4 D2 |  D2 E2 F2 |
"G" G2 B4  | "Am" A4 "Bm" F2   | "Em" B6 :|
K:A
|: "A" E3 E E2 |  A3 A A2 | "D" D2E2 AB | "A" cB ABcA |
"A" c2cB A2 |[1  c2 cB A2 | "D" fe  de fd | "E" ef edcB :|
[2  "G" d2 B2 G2 | "D-no 3rd" D2A2 A2 | "A-no 3rd" A6 |]
